X: 1437
T: An Ugly Customer
R: reel
M: 4/4
K: Amixolydian
|:EAcA eAcA|EAce dBB2|EAcA eAcA|afed cABG|
EAcA eAcA|EAce dBBg|a3e faec|BGgB BAA2:|
|:a3f g3e|afed cABg|a3e faec|BGgB BAAg|
a3e faec|dBcA BGG2|E3D EFGA|BGgB BAA2:|

